docs/img/icons/logos_javascript.svg

<svg width="16" height="16" viewBox="0 0 16 16" fill="none" xmlns="http://www.w3.org/2000/svg">
<path d="M0 0H16V16H0V0Z" fill="#F7DF1E"/>
<path d="M4.207 13.3708L5.43138 12.6298C5.66763 13.0486 5.8825 13.403 6.39794 13.403C6.892 13.403 7.20357 13.2097 7.20357 12.458V7.34558H8.70713V12.4792C8.70713 14.0365 7.79425 14.7454 6.46238 14.7454C5.25956 14.7454 4.56138 14.1225 4.20694 13.3706" fill="black"/>
<path d="M9.5238 13.2096L10.7481 12.5008C11.0704 13.0271 11.4892 13.4138 12.2302 13.4138C12.8533 13.4138 13.2506 13.1023 13.2506 12.6726C13.2506 12.1571 12.8424 11.9745 12.1551 11.6739L11.7792 11.5126C10.6944 11.051 9.97487 10.471 9.97487 9.24658C9.97487 8.11883 10.8341 7.25958 12.1766 7.25958C13.1325 7.25958 13.8199 7.59258 14.3139 8.46252L13.1431 9.21439C12.8853 8.75258 12.6062 8.57002 12.1766 8.57002C11.7362 8.57002 11.4569 8.84927 11.4569 9.21439C11.4569 9.66546 11.7362 9.84814 12.3806 10.1274L12.7564 10.2885C14.0346 10.8363 14.7541 11.3947 14.7541 12.6512C14.7541 14.0046 13.6909 14.7456 12.2624 14.7456C10.8662 14.7456 9.96406 14.0797 9.52374 13.2097" fill="black"/>
</svg>

<svg width="16" height="16" fill="none" xmlns="http://www.w3.org/2000/svg"><path d="M0 0h16v16H0V0z" fill="#F7DF1E"/><path d="M4.207 13.37l1.224-.74c.237.419.452.773.967.773.494 0 .806-.193.806-.945V7.346h1.503v5.133c0 1.558-.913 2.266-2.245 2.266-1.202 0-1.9-.622-2.255-1.374m5.317-.161l1.224-.71c.322.527.741.914 1.482.914.623 0 1.02-.312 1.02-.741 0-.516-.408-.698-1.095-1l-.376-.16c-1.085-.462-1.804-1.042-1.804-2.266 0-1.128.86-1.987 2.202-1.987.956 0 1.643.333 2.137 1.203l-1.17.751c-.259-.461-.538-.644-.967-.644-.44 0-.72.28-.72.644 0 .451.28.634.924.913l.375.162c1.279.547 1.998 1.106 1.998 2.362 0 1.354-1.063 2.095-2.492 2.095-1.396 0-2.298-.666-2.738-1.536" fill="#000"/></svg>
